!!!!SEGMENT: Ser1004e-Requiem-Offertory
!!!id: Ser1004e
!!!AGN: Mass; Offertory
!!!voices: 4
!!!OPR: Requiem
!!!COM: Claudin de Sermisy
!!!OTL: Offertory
**kern	**kern	**kern	**kern
*part4	*part3	*part2	*part1
*staff4	*staff3	*staff2	*staff1
*I"Bassus	*I"Tenor	*I"Altus	*I"Superius
*I'B.	*I'T.	*I'A.	*I'S.
*clefF4	*clefGv2	*clefGv2	*clefG2
*k[]	*k[]	*k[]	*k[]
*M2/1	*M2/1	*M2/1	*M2/1
*met(C|)	*met(C|)	*met(C|)	*met(C|)
=1	=1	=1	=1
!!section: Rex glorie
!!!OMD: Rex glorie
!	!	!	!LO:TX:a:t=Cantus firmus&colon; Missa pro defunctis
1.A	0E	1.A	[0a
2G	.	2B	.
=2	=2	=2	=2
2F	0F	2c	0a]
2D	.	1d	.
1A	.	.	.
.	.	2c	.
=3	=3	=3	=3
0G	0G	1d	0b
.	.	2r	.
.	.	[2d	.
=4	=4	=4	=4
1A	1E	2d]	1a
.	.	2c	.
2.B	[1D	1d	1f
4A	.	.	.
=5	=5	=5	=5
1G	2D]	1B	1g
.	2E	.	.
1F	[1F	1c	[1a
=6	=6	=6	=6
0B-i	2F]	0d	2a]
.	2D	.	4g
.	.	.	4f
.	[1D	.	1g
=7	=7	=7	=7
0A	2D]	0e	1a
.	4C#i	.	.
.	4BB	.	.
.	1C#i	.	1r
=8	=8	=8	=8
0D	0D	1r	0a
.	.	[1d	.
=9	=9	=9	=9
0r	0r	1d]	1f
.	.	1B	1g
=10	=10	=10	=10
1r	0E	1c	1g
[1A	.	1c	1r
=11	=11	=11	=11
1A]	1C	1r	0a
1F	1D	1A	.
=12	=12	=12	=12
1G	0D	2.B	1g
.	.	4A	.
2.G	.	4B	1g
.	.	4c	.
.	.	[2d	.
4F	.	.	.
=13	=13	=13	=13
2D	1r	4d]	2f
.	.	4c	.
2.f	.	2A	1a
.	1D	2B	.
4e	.	.	.
[2d	.	2B	2g
=14	=14	=14	=14
2d]	1.E	0A	[0a
4c	.	.	.
4B	.	.	.
2c	.	.	.
2c	2E	.	.
=15	=15	=15	=15
1d	0D	2r	0a_
.	.	2.f	.
1D	.	.	.
.	.	4e	.
.	.	[2d	.
=16	=16	=16	=16
1.A	1.E	2d]	0a]
.	.	4c#i	.
.	.	4B	.
.	.	2c#i	.
2A	2E	2c#i	.
=17	=17	=17	=17
1D	0D	2d	2r
.	.	2A	2.f
1r	.	2B	.
.	.	.	4e
.	.	2B	[2d
=18	=18	=18	=18
1r	0E	0A	2d]
.	.	.	4c
.	.	.	4B
2r	.	.	2c
2A	.	.	2c
=19	=19	=19	=19
2B	1D	1r	2.f
2B	.	.	.
.	.	.	4g
1A	2.E	2r	4a
.	.	.	4b-i
.	.	2A	[2a
.	8DL	.	.
.	8CJ	.	.
=20	=20	=20	=20
1r	2D	2B	2a]
.	2D	2B	2g
[1F	[1C	[1A	1a
=21	=21	=21	=21
1F]	1C]	1A]	1f
1E	1C	1G	1g
=22	=22	=22	=22
2D	1D	2A	2f
2G	.	2B	2g
2F	1F	2c	[1a
2D	.	2d	.
=23	=23	=23	=23
2A	2E	2c	2a]
2B	2D	1d	2g
1A	1E	.	1a
.	.	2c#i	.
=24	=24	=24	=24
1D	[0D	2.d	1f
.	.	4e	.
2r	.	[1f	[1a
[2D	.	.	.
=25	=25	=25	=25
4D]	1D]	1f]	1a]
4E	.	.	.
4F	.	.	.
4G	.	.	.
2A	1r	1r	1f
2B	.	.	.
=26	=26	=26	=26
2G	0r	0r	1g
1c	.	.	.
.	.	.	1g
2B	.	.	.
=27	=27	=27	=27
1c	0E	2r	0r
.	.	2.A	.
1r	.	.	.
.	.	4B	.
.	.	4c	.
.	.	4d	.
=28	=28	=28	=28
2r	1C	2e	0r
2A	.	2.f	.
2B	1D	.	.
.	.	4d	.
2G	.	[2g	.
=29	=29	=29	=29
1d	0D	2g]	1a
.	.	2f#i	.
[1G	.	2g	[1b
.	.	4G	.
.	.	4A	.
=30	=30	=30	=30
2G]	1D	4B	2b]
.	.	4c	.
2F	.	1d	2a
1E	1E	.	2.g
.	.	2c	.
.	.	.	4a
=31	=31	=31	=31
0D	0F	1d	2b
.	.	.	2a
.	.	2.A	2d
.	.	.	[2a
.	.	4B	.
=32	=32	=32	=32
0r	1E	1.c	2a]
.	.	.	2g
.	2C	.	2e
.	[2D	2B	[2f
=33	=33	=33	=33
0r	4D]	1A	4f]
.	4C	.	4e
.	1C	.	2c
.	.	1G	1d
.	2BB	.	.
=34	=34	=34	=34
2r	1C	0c	1e
1A	.	.	.
.	1r	.	1r
2F	.	.	.
=35	=35	=35	=35
2G	1E	0r	0r
2.A	.	.	.
.	1C	.	.
4G	.	.	.
4F	.	.	.
4E	.	.	.
=36	=36	=36	=36
2F	1D	0r	0r
2G	.	.	.
4D	1F	.	.
4E	.	.	.
4F	.	.	.
4G	.	.	.
=37	=37	=37	=37
4A	1E	0r	0r
4B	.	.	.
4c	.	.	.
4A	.	.	.
4B	4D	.	.
4c	4E	.	.
[2d	4F	.	.
.	4D	.	.
=38	=38	=38	=38
4d]	1E	0r	0r
4c	.	.	.
1c	.	.	.
.	1D	.	.
2B	.	.	.
=39	=39	=39	=39
2c	0r	1e	0r
1A	.	.	.
.	.	2c	.
2F	.	[2d	.
=40	=40	=40	=40
2G	0r	4d]	0r
.	.	4c	.
2B-i	.	4d	.
.	.	4e	.
1A	.	2f	.
.	.	[2e	.
=41	=41	=41	=41
2G	0r	4e]	2r
.	.	4d	.
2A	.	4c	1a
.	.	4B	.
2F	.	2c	.
2D	.	[2d	2f
=42	=42	=42	=42
1E	0r	2d]	2.g
.	.	2c#i	.
.	.	.	4a
1D	.	1d	2b-i
.	.	.	[2a
=43	=43	=43	=43
0r	1E	1r	2a]
.	.	.	2g
.	1C	1A	2e
.	.	.	[2a
=44	=44	=44	=44
0r	1D	1B	2a]
.	.	.	2g
.	[1F	2A	[1a
.	.	2d	.
=45	=45	=45	=45
1D	1F]	2.d	1a]
.	.	4c	.
1E	1E	2B	1g
.	.	2G	.
=46	=46	=46	=46
1D	0r	1A	1f
1G	.	2G	2r
.	.	[2B	[2g
=47	=47	=47	=47
2G	1D	2B]	2g]
2F	.	2A	1a
2E	1E	2B	.
2C	.	2c	[2g
=48	=48	=48	=48
1D	0D	1A	2g]
.	.	.	2f#i
[1G	.	[1B	2g
.	.	.	2g
=49	=49	=49	=49
0G]	2r	0B]	2.g
.	2G	.	.
.	.	.	4f
.	2.G	.	2e
.	.	.	2d
.	4F	.	.
=50	=50	=50	=50
2r	2.E	1r	2.c
2A	.	.	.
.	4D	.	4d
2.A	2.C	2r	2e
.	.	2A	2f
8GL	4D	.	.
8FJ	.	.	.
=51	=51	=51	=51
2E	2E	2G	2g
1D	1F	2.A	2f
.	.	.	2d
.	.	4B	.
2C	[2E	[2c	2e
=52	=52	=52	=52
1D	2E]	2c]	1f
.	2D	2B	.
2r	1E	1c	1e
2C	.	.	.
=53	=53	=53	=53
2D	0r	0A	2r
1F	.	.	2c
.	.	.	2d
2D	.	.	[2f
=54	=54	=54	=54
2A	1C	0r	2f]
2A	.	.	2e
1D	2D	.	2f
.	[2F	.	[2d
=55	=55	=55	=55
0r	2F]	1A	2d]
.	2E	.	2c
.	1D	2B	4d
.	.	.	4e
.	.	[2d	4f
.	.	.	4g
=56	=56	=56	=56
1A	1E	2d]	1a
.	.	2c	.
2B	1D	2d	1g
[2d	.	2B	.
=57	=57	=57	=57
2d]	1E	1A	1a
2c	.	.	.
2d	2.F	2r	1r
2B	.	2d	.
.	8EL	.	.
.	8DJ	.	.
=58	=58	=58	=58
2A	2C	2e	1.a
2D	1D	1f	.
[1A	.	.	.
.	4C#i	4e	2a
.	4BB	4d	.
=59	=59	=59	=59
1A]	1C#i	1e	1a
[1D	1D	1r	2r
.	.	.	2a
=60	=60	=60	=60
1D]	1r	2r	4a
.	.	.	4g
.	.	2d	4f
.	.	.	4e
1r	2r	4d	2f
.	.	4c	.
.	2D	4B	[2a
.	.	4A	.
=61	=61	=61	=61
0r	1D	1B	2a]
.	.	.	2g
.	1C	2.A	[1a
.	.	4B	.
=62	=62	=62	=62
2r	1AA	4c	0a_
.	.	4d	.
2A	.	2.c	.
4A	1C	.	.
4G	.	4B	.
4F	.	4A	.
4E	.	4G	.
=63	=63	=63	=63
1F	1D	1A	1a]
[1E	1E	[1B	[1g
=64	=64	=64	=64
1E]	1E	0B]	0g]
1G	1D	.	.
=65	=65	=65	=65
1F	0F	1c	[0a
1D	.	1d	.
=66	=66	=66	=66
2.A	0E	2.c	1a]
4G	.	8BL	.
.	.	8AJ	.
1E	.	1B	1g
=67	=67	=67	=67
2r	1r	2A	1e
2A	.	2c	.
1A	1E	1c	1a
=68	=68	=68	=68
1G	1E	1B	0r
1G	1D	1B	.
=69	=69	=69	=69
2F	1D	2A	2r
2G	.	2B	2g
1E	1C	1G	2g
.	.	.	2e
=70	=70	=70	=70
1D	1D	1A	4f
.	.	.	4e
.	.	.	4d
.	.	.	4c
1G	1D	1r	4B
.	.	.	4A
.	.	.	[2d
=71	=71	=71	=71
1r	1E	1A	2d]
.	.	.	2c#i
1D	1D	1B	1d
=72	=72	=72	=72
1E	0r	1c	1r
1F	.	1d	1A
=73	=73	=73	=73
1G	1D	0r	1B
1r	1E	.	1c
=74	=74	=74	=74
2r	0F	0r	1d
1F	.	.	.
.	.	.	2c
2D	.	.	2d
=75	=75	=75	=75
1E	0G	1e	2.B
.	.	.	4A
2r	.	2d	1B
2E	.	2e	.
=76	=76	=76	=76
2F	2r	2c	1A
2D	1F	2.d	.
1F	.	.	2r
.	.	4c	.
.	2D	2A	[2a
=77	=77	=77	=77
1E	1E	1B	2a]
.	.	.	2g
2r	1E	1A	1a
2A	.	.	.
=78	=78	=78	=78
2B	0D	0r	2f
2G	.	.	2g
1B	.	.	2f
.	.	.	[2d
=79	=79	=79	=79
1A	1E	1r	2d]
.	.	.	2c#i
1D	2.F	2r	2d
.	.	2A	2a
.	4E	.	.
=80	=80	=80	=80
0r	2D	2B	2f
.	2.E	2G	2.g
.	.	1B	.
.	4D	.	4f
.	[2D	.	2d
=81	=81	=81	=81
1r	2D]	1A	1e
.	2C#i	.	.
2r	1D	1r	2.f
2D	.	.	.
.	.	.	4g
=82	=82	=82	=82
2D	0r	2r	1a
1F	.	2A	.
.	.	2A	1r
2E	.	[2c	.
=83	=83	=83	=83
1G	2r	2c]	1r
.	2D	2B	.
1D	2D	1d	2r
.	[2F	.	2A
=84	=84	=84	=84
0r	2F]	0A	2A
.	2E	.	1c
.	1G	.	.
.	.	.	2B
=85	=85	=85	=85
0r	1F	0r	2d
.	.	.	4A
.	.	.	4B
.	2E	.	4c
.	.	.	4d
.	4D	.	4e
.	4E	.	4f
=86	=86	=86	=86
1r	4E	0r	2g
.	4C	.	.
.	1F	.	1a
2r	.	.	.
2G	[2E	.	2g
=87	=87	=87	=87
2A	2E]	0r	1f
2B	2D	.	.
2c	1E	.	1e
[2A	.	.	.
=88	=88	=88	=88
4A]	0r	0r	1c
4G	.	.	.
4F	.	.	.
4E	.	.	.
2F	.	.	1d
[2G	.	.	.
=89	=89	=89	=89
4G]	0r	2r	1e
4F	.	.	.
2E	.	2G	.
1D	.	2A	1f
.	.	2B	.
=90	=90	=90	=90
1r	1C	2c	2e
.	.	2A	1a
2r	1D	1B	.
[2d	.	.	2g
=91	=91	=91	=91
2d]	1E	1A	[0a
2c	.	.	.
2d	1F	2r	.
2D	.	[2d	.
=92	=92	=92	=92
1A	1E	2d]	1a]
.	.	2c	.
2r	2.D	2d	1a
[2D	.	[2A	.
.	4C	.	.
=93	=93	=93	=93
2D]	2D	4A]	2f
.	.	4B	.
2C	2.E	2c	2.a
1D	.	[1A	.
.	4D	.	4g
.	[2D	.	2f
=94	=94	=94	=94
1A	2D]	0A_	1e
.	2C#i	.	.
[1D	[1D	.	[1f
=95	=95	=95	=95
1D]	1D]	1A]	1f]
[1G	[1D	[1B	[1g
=96	=96	=96	=96
1G]	1D]	1B]	1g]
1D	1D	1A	1f
=97	=97	=97	=97
1F	1C	1.A	1.f
[1C	[1C	.	.
.	.	4G	4e
.	.	4F	4d
=98	=98	=98	=98
1C]	1C]	1G	1e
[1F	[1AA	1r	[1f
=99	=99	=99	=99
1F]	1AA]	1c	0f]
2r	1r	1d	.
2F	.	.	.
=100	=100	=100	=100
1G	1r	1e	0r
1A	1C	1e	.
=101	=101	=101	=101
2D	1D	2r	1f
2F	.	2A	.
1E	1E	1B	1g
=102	=102	=102	=102
1A	1E	1c	1a
1D	1D	1A	[1a
=103	=103	=103	=103
1D	1.F	1d	1a]
[1F	.	1c	1a
.	2E	.	.
=104	=104	=104	=104
1F]	2D	1f	1a
.	1C	.	.
[1G	.	2e	[1g
.	4BB	4d	.
.	4AA	4c	.
=105	=105	=105	=105
1G]	1BB	1d	1g]
1r	[1C	1c	[1e
=106	=106	=106	=106
1.A	1C]	1r	0e]
.	1r	[1A	.
2B	.	.	.
=107	=107	=107	=107
1c	1.E	2A]	1r
.	.	2B	.
1A	.	1c	2r
.	2F	.	2a
=108	=108	=108	=108
1G	1G	1d	2b
.	.	.	2b
2A	1E	2c	2a
2E	.	2B	2g
=109	=109	=109	=109
2F	2.D	2A	4f
.	.	.	4e
2G	.	1B	4d
.	4E	.	4c
[1D	2F	.	[1d
.	[2G	4A	.
.	.	4G	.
=110	=110	=110	=110
1D]	2G]	1A	1d]
.	2F#i	.	.
1G	2.G	1B	1d
.	4Fny	.	.
=111	=111	=111	=111
1.A	2.E	1c	2.a
.	4D	.	4g
.	2C	2A	2f
2G	2BB	2B	2e
=112	=112	=112	=112
2F	1AA	2c	1f
2D	.	2d	.
1E	1C	1G	4e
.	.	.	4f
.	.	.	4g
.	.	.	4e
=113	=113	=113	=113
1D	1D	0A	2f
.	.	.	1d
1r	1E	.	.
.	.	.	2c#i
=114	=114	=114	=114
1D	1F	2r	2d
.	.	1d	1A
1A	1E	.	.
.	.	2c	[2a
=115	=115	=115	=115
1B	1.D	1d	2a]
.	.	.	2g
[1A	.	[1e	[1a
.	4C#i	.	.
.	4BB	.	.
=116	=116	=116	=116
1A]	1C#i	1e]	1a]
[1Dl	[1Dl	2d	[1fl
.	.	2A	.
=117	=117	=117	=117
0D_	0D_	1B	0f_
.	.	[1Al	.
=118	=118	=118	=118
0D]	0D]	0A]	0f]
=119||	=119||	=119||	=119||
*M2/1	*M2/1	*M2/1	*M2/1
*met(C|)	*met(C|)	*met(C|)	*met(C|)
!!section: Tu suscipe
!!!OMD: Tu suscipe
0A	1.e	0c	1.a
.	2f	.	4g
.	.	.	4a
=120	=120	=120	=120
1G	1g	1d	1b
1D	[1f	2d	[1a
.	.	[2d	.
=121	=121	=121	=121
0A	2f]	1d]	2a]
.	4e	.	2a
.	4d	.	.
.	2e	4c#i	2.a
.	.	4B	.
.	2e	2c#i	.
.	.	.	4g
=122	=122	=122	=122
0D	0d	1r	4f
.	.	.	4e
.	.	.	2.f
.	.	1d	.
.	.	.	4e
.	.	.	4d
.	.	.	4c
=123	=123	=123	=123
1G	0r	1d	2.B
.	.	.	4A
1G	.	1e	1B
=124	=124	=124	=124
1A	1r	1f	1c
1B-X	1d	2.f	1r
.	.	4e	.
=125	=125	=125	=125
4B-i	1d	4d	2r
4A	.	4c	.
4G	.	4B	1g
4F	.	4A	.
1G	1e	2B	.
.	.	2B	2g
=126	=126	=126	=126
1F	1f	1c	2.a
.	.	.	8gL
.	.	.	8fJ
1r	2c	1g	2e
.	2e	.	2c
=127	=127	=127	=127
0r	1d	1f	2d
.	.	.	1f
.	1c	1g	.
.	.	.	2e
=128	=128	=128	=128
1r	0r	1a	2.f
.	.	.	4g
1d	.	2f	1a
.	.	4e	.
.	.	4d	.
=129	=129	=129	=129
1c	1g	1e	0r
1d	1f	2d	.
.	.	2f	.
=130	=130	=130	=130
2.e	1g	2.c	2r
.	.	.	2e
4d	.	4B	.
2c	1a	4c	2e
.	.	4d	.
2A	.	[2e	[2a
=131	=131	=131	=131
1B	2f	4e]	2a]
.	.	4d	.
.	4e	1d	2g
.	4d	.	.
1A	2e	.	2.a
.	2e	2c#i	.
.	.	.	4g
=132	=132	=132	=132
1D	0d	2.d	2f
.	.	.	2d
.	.	4e	.
2r	.	1f	2.d
2D	.	.	.
.	.	.	4e
=133	=133	=133	=133
2D	1r	1r	2f
2E	.	.	4e
.	.	.	4d
2F	2r	2A	2c
[2D	2d	2A	[2f
=134	=134	=134	=134
2D]	2d	2B	2f]
2C	2e	2c	2e
2.D	2.f	2A	1d
.	.	[2f	.
4E	4e	.	.
=135	=135	=135	=135
4F	2d	2f]	1r
4G	.	.	.
2A	2c	1e	.
2G	4B	.	1g
.	4A	.	.
2B	[2d	2d	.
=136	=136	=136	=136
1A	2d]	1e	1a
.	2c#i	.	.
[1D	1d	1r	1f
=137	=137	=137	=137
1D]	0r	1d	2f
.	.	.	4e
.	.	.	4d
1r	.	1e	2c
.	.	.	[2g
=138	=138	=138	=138
0r	0r	1c	2g]
.	.	.	2g
.	.	2.c	4g
.	.	.	4f
.	.	.	4g
.	.	8BL	4a
.	.	8AJ	.
=139	=139	=139	=139
2r	1d	2.G	2.b
1G	.	.	.
.	.	4A	4a
.	1e	2B	4g
.	.	.	4f
[2A	.	2c	[2e
=140	=140	=140	=140
2A]	1c	2A	2e]
2.F	.	1f	1a
.	1c	.	.
4G	.	.	.
2A	.	2e	2a
=141	=141	=141	=141
4D	1A	1f	[0a
4E	.	.	.
4F	.	.	.
4G	.	.	.
2A	[1c	2e	.
2F	.	[2f	.
=142	=142	=142	=142
1A	2c]	4f]	1a]
.	.	4d	.
.	2c	4e	.
.	.	4f	.
1G	1d	2g	1b
.	.	[2G	.
=143	=143	=143	=143
2r	1e	2G]	0g
2C	.	1c	.
1G	1d	.	.
.	.	2B	.
=144	=144	=144	=144
1A	1.c	1c	1f
[1G	.	[1d	[1g
.	4B	.	.
.	4A	.	.
=145	=145	=145	=145
1G]	1B	1d]	0g_
1C	[1c	2r	.
.	.	2e	.
=146	=146	=146	=146
2r	1c]	1e	1g]
2c	.	.	.
2.c	2r	2.e	1g
.	[2e	.	.
4B	.	4d	.
=147	=147	=147	=147
1A	4e]	4c	1a
.	4d	4B	.
.	4e	1c	.
.	4f	.	.
1G	2.g	.	1d
.	.	2B	.
.	4f	.	.
=148	=148	=148	=148
2r	1e	1c	1g
2C	.	.	.
2.D	1d	1A	1f
4E	.	.	.
=149	=149	=149	=149
2F	1c	2r	0r
2.E	.	1G	.
.	2.d	.	.
4D	.	.	.
[2D	.	[2A	.
.	4e	.	.
=150	=150	=150	=150
2D]	2f	4A]	1r
.	.	4B	.
2C	1e	4c	.
.	.	4A	.
1D	.	2B	2r
.	[2d	2A	2f
=151	=151	=151	=151
1E	2d]	0r	2.g
.	2c	.	.
.	.	.	4a
2.D	[1d	.	2b-i
.	.	.	[2a
4E	.	.	.
=152	=152	=152	=152
2F	1d]	2r	4a]
.	.	.	4g
2D	.	2.A	2f
1A	2.c	.	2.e
.	.	4B	.
.	.	4c	.
.	4d	4A	4f
=153	=153	=153	=153
2G	2e	2B	2g
2F	1f	2.c	1a
2A	.	.	.
.	.	4A	.
2B-i	4e	[2d	2g
.	4d	.	.
=154	=154	=154	=154
1A	1e	2d]	1a
.	.	2c#i	.
[1D	[1d	2.d	[1f
.	.	4cny	.
=155	=155	=155	=155
1D]	1d]	1A	1f]
[1G	[1d	[1B	[1g
=156	=156	=156	=156
1G]	1d]	1B]	1g]
1D	1d	1A	1f
=157	=157	=157	=157
1F	1c	1.A	1.f
[1C	[1c	.	.
.	.	4G	4e
.	.	4F	4d
=158	=158	=158	=158
1C]	1c]	1G	1e
[1F	[1A	1r	[1f
=159	=159	=159	=159
1F]	1A]	1c	0f]
2r	1r	1d	.
2F	.	.	.
=160	=160	=160	=160
1G	1r	1e	0r
1A	1c	1e	.
=161	=161	=161	=161
2D	1d	2r	1f
2F	.	2A	.
1E	1e	1B	1g
=162	=162	=162	=162
1A	1e	1c	1a
1D	1d	1A	[1a
=163	=163	=163	=163
1D	1.f	1d	1a]
[1F	.	1c	1a
.	2e	.	.
=164	=164	=164	=164
1F]	2d	1f	1a
.	1c	.	.
[1G	.	2e	[1g
.	4B	4d	.
.	4A	4c	.
=165	=165	=165	=165
1G]	1B	1d	1g]
1r	[1c	1c	[1e
=166	=166	=166	=166
1.A	1c]	1r	0e]
.	1r	[1A	.
2B	.	.	.
=167	=167	=167	=167
1c	1.e	2A]	1r
.	.	2B	.
1A	.	1c	2r
.	2f	.	2a
=168	=168	=168	=168
1G	1g	1d	2b
.	.	.	2b
2A	1e	2c	2a
2E	.	2B	2g
=169	=169	=169	=169
2F	2.d	2A	4f
.	.	.	4e
2G	.	1B	4d
.	4e	.	4c
[1D	2f	.	[1d
.	[2g	4A	.
.	.	4G	.
=170	=170	=170	=170
1D]	2g]	1A	1d]
.	2f#i	.	.
1G	2.g	1B	1d
.	4fny	.	.
=171	=171	=171	=171
1.A	2.e	1c	2.a
.	4d	.	4g
.	2c	2A	2f
2G	2B	2B	2e
=172	=172	=172	=172
2F	1A	2c	1f
2D	.	2d	.
1E	1c	1G	4e
.	.	.	4f
.	.	.	4g
.	.	.	4e
=173	=173	=173	=173
1D	1d	0A	2f
.	.	.	1d
1r	1e	.	.
.	.	.	2c#i
=174	=174	=174	=174
1D	1f	2r	2d
.	.	1d	1A
1A	1e	.	.
.	.	2c	[2a
=175	=175	=175	=175
1B	1.d	1d	2a]
.	.	.	2g
[1A	.	[1e	[1a
.	4c#i	.	.
.	4B	.	.
=176	=176	=176	=176
1A]	1c#i	1e]	1a]
[1Dl	[1dl	2d	[1fl
.	.	2A	.
=177	=177	=177	=177
0D_	0d_	1B	0f_
.	.	[1Al	.
=178	=178	=178	=178
0D]	0d]	0A]	0f]
==	==	==	==
*-	*-	*-	*-
!!!system-decoration: s1,s2,s3,s4
!!!RDF**kern: i = editorial accidental
!!!RDF**kern: l = terminal long
!!!ENC: Max Blistain
!!!END: 2025/11/18
!!!EED: Benjamin Ory
!!!EEV: 2026/02/19
!!!YEC: Copyright 2026 Benjamin Ory, All Rights Reserved
!!!ONB: Translated from MusicXML on 2026/02/19
